X: 2
T: Tom Doherty's
R: reel
M: 4/4
L: 1/8
K: Bdor
|: ~f2df Bfdf | fefg afga | f2df Bfdf | ecAc eaga |
f2df Bfdf | fefg afga | bgaf gefa |1 ecAc eaga :|2 ecAc efga ||
|: bB~B2 fB~B2 | bB~B2 a2ga | bB~B2 fBdf | ecAc efga |
bB~B2 fB~B2 | bB~B2 a2ga | bgaf gefa |1 ecAc efga :|2 ecAc eaga ||

